icons/credit_card.svg

<svg width="48" height="48" viewBox="0 0 48 48" fill="none" xmlns="http://www.w3.org/2000/svg">
<path fill-rule="evenodd" clip-rule="evenodd" d="M7 38C5.34315 38 4 36.6569 4 35V13C4 11.3431 5.34315 10 7 10H41C42.6569 10 44 11.3431 44 13V35C44 36.6569 42.6569 38 41 38H7ZM6 13C6 12.4477 6.44772 12 7 12H41C41.5523 12 42 12.4477 42 13V16H6V13ZM7 36C6.44772 36 6 35.5523 6 35V24H42V35C42 35.5523 41.5523 36 41 36H7Z" fill="black"/>
</svg>

<svg
  xmlns="http://www.w3.org/2000/svg"
  width="24"
  height="24"
  viewBox="0 0 24 24"
  fill="none"
  stroke="currentColor"
  stroke-width="2"
  stroke-linecap="round"
  stroke-linejoin="round"
>
  <path
    fill-rule="evenodd"
    d="M7 38a3 3 0 0 1-3-3V13a3 3 0 0 1 3-3h34a3 3 0 0 1 3 3v22a3 3 0 0 1-3 3zM6 13a1 1 0 0 1 1-1h34a1 1 0 0 1 1 1v3H6zm1 23a1 1 0 0 1-1-1V24h36v11a1 1 0 0 1-1 1z"
    clip-rule="evenodd"
  />
</svg>
